X:17692
T:Touch me if you dare
R:Reel
S:Michael Tubridy
H:
N:
D:@ Milltown
Z:Adrian Scahill
M:4/4
L:1/8
K:G
BGGB AGED|BGGA Bdgd|BGGB AGED|EAAG A2dc|\
BGGB AGED|BGGA Bdgd|B2BG AGED|EGGF G4:||\
dega bgag|egdg egdB|dega bgag|eaag a2ge|\
dega bgag|egdg egdc|B2BG AGED|EGGF G4:||


